img/svg/googleplay.svg

<svg width="24" height="24" viewBox="0 0 24 24" fill="none" xmlns="http://www.w3.org/2000/svg">
<path fill-rule="evenodd" clip-rule="evenodd" d="M22.1358 13.2316L18.5171 15.3703L15.076 11.7931L18.1534 8.40578L22.1358 10.7594C22.704 11.0927 22.9919 11.5322 22.9997 11.9741C22.9999 11.9829 23 11.9917 23 12.0005L22.9998 11.9989C22.997 12.4447 22.709 12.8911 22.1358 13.2316ZM17.269 7.89208L6.08996 1.28988C5.58648 0.99166 5.12464 0.931597 4.76373 1.07272L14.3812 11.0708L17.269 7.89208ZM13.7072 11.8126L4.10543 1.83083C4.03704 2.03587 4 2.27608 4 2.54803V2.67635C4 2.58824 4.00387 2.50346 4.01142 2.42212C4.00984 2.46035 4.00903 2.49922 4.00903 2.53873V21.4609C4.00903 21.7961 4.06494 22.0836 4.16636 22.3145L13.7072 11.8126ZM4.91969 22.9724C5.2553 23.0485 5.66115 22.9691 6.09843 22.7101L17.6327 15.8935L14.4021 12.5349L4.91969 22.9724Z" />
</svg>

<svg width="24" height="24" fill="none" xmlns="http://www.w3.org/2000/svg"><path clip-rule="evenodd" d="M22.136 13.232l-3.619 2.138-3.441-3.577 3.077-3.387 3.983 2.353c.568.334.856.773.864 1.215v.027-.002c-.003.446-.291.892-.864 1.233zm-4.867-5.34L6.09 1.29c-.504-.298-.965-.358-1.326-.217l9.617 9.998 2.888-3.179zm-3.562 3.92l-9.602-9.98A2.27 2.27 0 004 2.548v.128c0-.088.004-.173.011-.254a2.824 2.824 0 00-.002.117V21.46c0 .335.056.623.157.854l9.541-10.502zM4.92 22.973c.335.076.741-.003 1.178-.262l11.535-6.817-3.23-3.358L4.92 22.972z"/></svg>
